polaris-icons/icons/newicons/DiscountsMajor.svg

<svg width="20" height="20" viewBox="0 0 20 20" fill="none" xmlns="http://www.w3.org/2000/svg">
<path d="M12.5303 7.71967C12.2374 7.42678 11.7626 7.42678 11.4697 7.71967L7.46967 11.7197C7.17678 12.0126 7.17678 12.4874 7.46967 12.7803C7.76256 13.0732 8.23744 13.0732 8.53033 12.7803L12.5303 8.78033C12.8232 8.48744 12.8232 8.01256 12.5303 7.71967Z" fill="black"/>
<path d="M9 8.25C9 8.80228 8.55228 9.25 8 9.25C7.44772 9.25 7 8.80228 7 8.25C7 7.69772 7.44772 7.25 8 7.25C8.55228 7.25 9 7.69772 9 8.25Z" fill="black"/>
<path d="M12 13.25C12.5523 13.25 13 12.8023 13 12.25C13 11.6977 12.5523 11.25 12 11.25C11.4477 11.25 11 11.6977 11 12.25C11 12.8023 11.4477 13.25 12 13.25Z" fill="black"/>
<path fill-rule="evenodd" clip-rule="evenodd" d="M12.2089 3.26388C11.3419 1.37526 8.65816 1.37525 7.79113 3.26388C7.58806 3.70623 7.07839 3.91735 6.62201 3.74815C4.67346 3.02577 2.7758 4.92343 3.49818 6.87198C3.66738 7.32836 3.45627 7.83803 3.01392 8.0411C1.12528 8.90813 1.12529 11.5918 3.01392 12.4589C3.45627 12.6619 3.66738 13.1716 3.49818 13.628C2.7758 15.5765 4.67346 17.4742 6.62201 16.7518C7.07839 16.5826 7.58806 16.7937 7.79113 17.2361C8.65816 19.1247 11.3419 19.1247 12.2089 17.2361C12.412 16.7937 12.9216 16.5826 13.378 16.7518C15.3266 17.4742 17.2242 15.5765 16.5018 13.628C16.3326 13.1716 16.5437 12.6619 16.9861 12.4589C18.8747 11.5918 18.8747 8.90813 16.9861 8.0411C16.5438 7.83803 16.3326 7.32836 16.5018 6.87198C17.2242 4.92343 15.3266 3.02577 13.378 3.74815C12.9216 3.91735 12.412 3.70624 12.2089 3.26388ZM9.15434 3.88971C9.48628 3.16665 10.5137 3.16665 10.8457 3.88971C11.3761 5.04513 12.7073 5.59655 13.8994 5.15461C14.6454 4.87805 15.3719 5.60456 15.0954 6.35056C14.6534 7.54264 15.2049 8.87388 16.3603 9.40431C17.0833 9.73625 17.0833 10.7637 16.3603 11.0956C15.2049 11.6261 14.6534 12.9573 15.0954 14.1494C15.3719 14.8954 14.6454 15.6219 13.8994 15.3453C12.7073 14.9034 11.3761 15.4548 10.8457 16.6102C10.5137 17.3333 9.48628 17.3333 9.15434 16.6102C8.62391 15.4548 7.29267 14.9034 6.10059 15.3453C5.3546 15.6219 4.62808 14.8954 4.90464 14.1494C5.34658 12.9573 4.79516 11.6261 3.63974 11.0956C2.91668 10.7637 2.91668 9.73625 3.63974 9.40431C4.79516 8.87388 5.34658 7.54264 4.90464 6.35056C4.62808 5.60456 5.3546 4.87805 6.10059 5.15461C7.29267 5.59655 8.62391 5.04513 9.15434 3.88971Z" fill="black"/>
</svg>

<svg viewBox="0 0 20 20" fill="none" xmlns="http://www.w3.org/2000/svg"><path d="M12.53 7.72a.75.75 0 0 0-1.06 0l-4 4a.75.75 0 1 0 1.06 1.06l4-4a.75.75 0 0 0 0-1.06Z" fill="#000"/><path d="M9 8.25a1 1 0 1 1-2 0 1 1 0 0 1 2 0Z" fill="#000"/><path d="M12 13.25a1 1 0 1 0 0-2 1 1 0 0 0 0 2Z" fill="#000"/><path fill-rule="evenodd" clip-rule="evenodd" d="M12.209 3.264c-.867-1.889-3.55-1.889-4.418 0a.93.93 0 0 1-1.169.484c-1.949-.722-3.846 1.175-3.124 3.124a.93.93 0 0 1-.484 1.17c-1.889.866-1.889 3.55 0 4.417a.93.93 0 0 1 .484 1.169c-.722 1.948 1.175 3.846 3.124 3.124a.93.93 0 0 1 1.17.484c.866 1.889 3.55 1.889 4.417 0a.93.93 0 0 1 1.169-.484c1.949.722 3.846-1.175 3.124-3.124a.93.93 0 0 1 .484-1.17c1.889-.866 1.889-3.55 0-4.417a.93.93 0 0 1-.484-1.169c.722-1.949-1.175-3.846-3.124-3.124a.93.93 0 0 1-1.17-.484Zm-3.055.626a.93.93 0 0 1 1.692 0 2.43 2.43 0 0 0 3.053 1.265.93.93 0 0 1 1.196 1.196 2.43 2.43 0 0 0 1.265 3.053.93.93 0 0 1 0 1.692 2.43 2.43 0 0 0-1.265 3.053.93.93 0 0 1-1.196 1.196 2.43 2.43 0 0 0-3.053 1.265.93.93 0 0 1-1.692 0 2.43 2.43 0 0 0-3.053-1.265.93.93 0 0 1-1.196-1.196 2.43 2.43 0 0 0-1.265-3.053.93.93 0 0 1 0-1.692 2.43 2.43 0 0 0 1.265-3.053.93.93 0 0 1 1.196-1.196 2.43 2.43 0 0 0 3.053-1.265Z" fill="#000"/></svg>
